X:1075
T: John Colton's
T: Se\'an \'O Comhalt\'ain
S: B.Breathnach:"Ceol Rince na hEireann" IV/142
Z: B.Black
L: 1/8
M: 4/4
R: reel
K: Edor
edBe dBAd|BAGE EDB,E|DEB,E DEGA|Bdgb aged|
edBe dBAd|BAGE EDB,E|DEGA Bdgb|aged Be e2 :|
(3gag fg eB B2|eB B2 dBGA|Bdef gfgb|(3bag ab agef|
gafg eB B2|eB B2 dBGA|GABd gbaf|gfed Be e2 :|
